svgs/sharp-light/arrow-up-square-triangle.svg

<svg xmlns="http://www.w3.org/2000/svg" viewBox="0 0 576 512"><!--! Font Awesome Pro 6.6.0 by @fontawesome - https://fontawesome.com License - https://fontawesome.com/license (Commercial License) Copyright 2024 Fonticons, Inc. --><path d="M352 64l0 128 128 0 0-128L352 64zM320 32l32 0 128 0 32 0 0 32 0 128 0 32-32 0-128 0-32 0 0-32 0-128 0-32zM160 33.4l11.3 11.3 88 88L270.6 144 248 166.6l-11.3-11.3L176 94.6 176 464l0 16-32 0 0-16 0-369.4L83.3 155.3 72 166.6 49.4 144l11.3-11.3 88-88L160 33.4zM296 480l20-32 81.1-129.8L416 288l18.9 30.2L516 448l20 32-37.7 0-164.5 0L296 480zm182.3-32L416 348.4 353.7 448l124.5 0z"/></svg>

<svg xmlns="http://www.w3.org/2000/svg" viewBox="0 0 576 512"><!--! Font Awesome Pro 6.5.2 by @fontawesome - https://fontawesome.com License - https://fontawesome.com/license (Commercial License) Copyright 2024 Fonticons, Inc. --><path d="M352 64V192H480V64H352zM320 32h32H480h32V64 192v32H480 352 320V192 64 32zM160 33.4l11.3 11.3 88 88L270.6 144 248 166.6l-11.3-11.3L176 94.6V464v16H144V464 94.6L83.3 155.3 72 166.6 49.4 144l11.3-11.3 88-88L160 33.4zM296 480l20-32 81.1-129.8L416 288l18.9 30.2L516 448l20 32H498.3 333.7 296zm182.3-32L416 348.4 353.7 448H478.3z"/></svg>
